X:96
T:Haste to the wedding
R:Jig
O:England
O:Ireland
O:Scotland
M:6/8
K:D
B|\
AFA Aaf|ede fdB|AFA A2F|GFG EFG|\
ABA Aaf|ede fdB|A2A faf|ded d2::
g|\
afa afa|bgb bgb|afa aff|gfg efg|\
a3 f3  |ede fdB|AFA faf|ded d2:|
